X:12927
T:Patsy Geary's
T:Kimmel's No.1
M:6/8
L:1/8
Q:200
C:Trad Irish
S:The Bothy Band
R:jig
K:D
A|F2 A ABA|B=cB A2 G|F2 A d2 e|f3 fef|!
gag fgf|efe d2 B|1]A2 A AFD|E3 EAG:|2]ABA f2 e|d3 d2||!
e|f2 e f2 e|f2 e fga|A2 A BAF|A3 ABd|!
efe efe|efe dfa|baf afe|d3 d2:||!
